icons/desktop/20/weather-20.svg

<svg width="20" height="20" viewBox="0 0 20 20" fill="none" xmlns="http://www.w3.org/2000/svg">
<g clip-path="url(#clip0_8069_32721)">
<path fill-rule="evenodd" clip-rule="evenodd" d="M11 5.25C13.3472 5.25 15.25 7.15275 15.25 9.5C15.25 11.0229 14.4485 12.3562 13.2451 13.1064C14.6848 13.4728 15.75 14.7752 15.75 16.3291C15.7499 17.9777 14.5484 19.3784 12.916 19.624C11.4338 19.8468 9.74115 20.001 7.875 20.001C6.57869 20.001 5.05799 19.9271 3.36914 19.7002C1.45202 19.4425 0.000164977 17.8112 0 15.8643C3.15125e-05 13.8266 1.57812 12.1575 3.57812 12.0107C4.12521 10.6217 5.30828 9.55369 6.76367 9.16211C6.93588 6.97285 8.76649 5.25 11 5.25ZM8.83887 10.8623C7.0537 10.3861 5.44065 11.4917 5.07617 13.0713C4.98459 13.4683 4.63112 13.75 4.22363 13.75H3.86328C2.69615 13.7508 1.75003 14.6977 1.75 15.8643C1.75017 16.9229 2.54207 17.8234 3.60254 17.9658C5.20368 18.1809 6.64532 18.251 7.875 18.251C9.64485 18.251 11.2505 18.1048 12.6562 17.8936C13.4295 17.777 13.9999 17.1142 14 16.3291C14 15.4574 13.2936 14.751 12.4219 14.751H11.875C11.3918 14.751 11 14.3592 11 13.876V13.8193C11 12.4309 10.1063 11.2006 8.83887 10.8623ZM11 7C9.77953 7 8.7644 7.87467 8.54492 9.03125C8.79031 9.05899 9.03882 9.10514 9.28906 9.17188C10.639 9.53196 11.6775 10.4764 12.251 11.6611C12.9971 11.2284 13.5 10.4235 13.5 9.5C13.5 8.11925 12.3808 7 11 7Z" fill="black"/>
<path d="M19.125 8.875C19.6082 8.875 20 9.26675 20 9.75C20 10.2332 19.6082 10.625 19.125 10.625H17.625C17.1418 10.625 16.75 10.2332 16.75 9.75C16.75 9.26675 17.1418 8.875 17.625 8.875H19.125Z" fill="black"/>
<path d="M4.2627 3.25586C4.60441 2.91426 5.15833 2.91419 5.5 3.25586L6.56055 4.31641C6.90222 4.65808 6.90215 5.21199 6.56055 5.55371C6.21884 5.89542 5.66495 5.89542 5.32324 5.55371L4.2627 4.49316C3.92099 4.15146 3.92099 3.59757 4.2627 3.25586Z" fill="black"/>
<path d="M16.5 3.25586C16.8416 2.91447 17.3957 2.91447 17.7373 3.25586C18.079 3.59757 18.079 4.15243 17.7373 4.49414L16.6768 5.55469C16.3351 5.89618 15.7811 5.8961 15.4395 5.55469C15.0978 5.21302 15.0979 4.6591 15.4395 4.31738L16.5 3.25586Z" fill="black"/>
<path d="M11 0.5C11.4832 0.5 11.875 0.891751 11.875 1.375V2.875C11.875 3.35825 11.4832 3.75 11 3.75C10.5168 3.75 10.125 3.35825 10.125 2.875V1.375C10.125 0.891751 10.5168 0.5 11 0.5Z" fill="black"/>
</g>
<defs>
<clipPath id="clip0_8069_32721">
<rect width="20" height="20" fill="white"/>
</clipPath>
</defs>
</svg>

<!-- This Source Code Form is subject to the terms of the Mozilla Public
   - License, v. 2.0. If a copy of the MPL was not distributed with this
   - file, You can obtain one at http://mozilla.org/MPL/2.0/. -->
<svg xmlns="http://www.w3.org/2000/svg" width="20" height="20" fill="context-fill" fill-opacity="context-fill-opacity" viewBox="0 0 20 20">
    <g clip-path="url(#clip0_8069_32721)">
        <path fill-rule="evenodd" d="M11 5.25a4.25 4.25 0 0 1 2.245 7.856 3.329 3.329 0 0 1-.33 6.518 34 34 0 0 1-9.546.076A3.88 3.88 0 0 1 0 15.864a3.865 3.865 0 0 1 3.578-3.853 4.77 4.77 0 0 1 3.186-2.849A4.25 4.25 0 0 1 11 5.25m-2.161 5.612c-1.785-.476-3.398.63-3.763 2.21a.875.875 0 0 1-.852.678h-.36a2.115 2.115 0 0 0-2.114 2.114 2.13 2.13 0 0 0 1.853 2.102 32 32 0 0 0 9.053-.072A1.58 1.58 0 0 0 14 16.329c0-.872-.706-1.578-1.578-1.578h-.547a.875.875 0 0 1-.875-.875v-.057c0-1.388-.894-2.618-2.161-2.957M11 7a2.5 2.5 0 0 0-2.455 2.031q.368.042.744.14c1.35.361 2.389 1.305 2.962 2.49A2.5 2.5 0 0 0 13.5 9.5 2.5 2.5 0 0 0 11 7" clip-rule="evenodd" />
        <path d="M19.125 8.875a.875.875 0 0 1 0 1.75h-1.5a.875.875 0 0 1 0-1.75zM4.263 3.256a.875.875 0 0 1 1.237 0l1.06 1.06a.875.875 0 0 1-1.237 1.238l-1.06-1.06a.875.875 0 0 1 0-1.238M16.5 3.256a.875.875 0 0 1 1.237 1.238l-1.06 1.06a.875.875 0 0 1-1.237-1.237zM11 .5c.483 0 .875.392.875.875v1.5a.875.875 0 0 1-1.75 0v-1.5c0-.483.392-.875.875-.875" />
    </g>
</svg>
